dist/img/logut-gr.svg

<svg width="24" height="24" fill="none" xmlns="http://www.w3.org/2000/svg"><g clip-path="url(#clip0_170_10547)"><path d="M7 7l1.4 1.4L5.8 11H16v2H5.8l2.6 2.6L7 17l-5-5 5-5zm13 12h-8v2h8c1.1 0 2-.9 2-2V5c0-1.1-.9-2-2-2h-8v2h8v14z" fill="#828A92"/></g><defs><clipPath id="clip0_170_10547"><path fill="#fff" d="M0 0h24v24H0z"/></clipPath></defs></svg>

<svg width="24" height="24" viewBox="0 0 24 24" fill="none" xmlns="http://www.w3.org/2000/svg">
<g clip-path="url(#clip0_170_10547)">
<path d="M7 7L8.4 8.4L5.8 11H16V13H5.8L8.4 15.6L7 17L2 12L7 7ZM20 19H12V21H20C21.1 21 22 20.1 22 19V5C22 3.9 21.1 3 20 3H12V5H20V19Z" fill="#828A92"/>
</g>
<defs>
<clipPath id="clip0_170_10547">
<rect width="24" height="24" fill="white"/>
</clipPath>
</defs>
</svg>
